icons/HTML.svg

<svg width="24" height="24" viewBox="0 0 24 24" fill="none" xmlns="http://www.w3.org/2000/svg">
<path fill-rule="evenodd" clip-rule="evenodd" d="M16.631 15.762L15.973 15.104C15.8874 15.0159 15.8394 14.8979 15.8394 14.775C15.8394 14.6521 15.8874 14.5341 15.973 14.446L18.373 12.057L15.936 9.632C15.8504 9.5439 15.8024 9.42587 15.8024 9.303C15.8024 9.18013 15.8504 9.0621 15.936 8.974L16.631 8.353C16.7191 8.26735 16.8371 8.21944 16.96 8.21944C17.0829 8.21944 17.2009 8.26735 17.289 8.353L20.697 11.77C20.7412 11.8116 20.7764 11.8618 20.8005 11.9175C20.8245 11.9733 20.837 12.0333 20.837 12.094C20.837 12.1547 20.8245 12.2147 20.8005 12.2705C20.7764 12.3262 20.7412 12.3764 20.697 12.418L17.252 15.762C17.166 15.8371 17.0557 15.8785 16.9415 15.8785C16.8273 15.8785 16.717 15.8371 16.631 15.762ZM7.37 15.762L8.028 15.104C8.11364 15.0159 8.16156 14.8979 8.16156 14.775C8.16156 14.6521 8.11364 14.5341 8.028 14.446L5.628 12.062L8.064 9.632C8.14964 9.5439 8.19756 9.42587 8.19756 9.303C8.19756 9.18013 8.14964 9.0621 8.064 8.974L7.369 8.353C7.2809 8.26735 7.16287 8.21944 7.04 8.21944C6.91713 8.21944 6.7991 8.26735 6.711 8.353L3.34 11.733C3.29581 11.7746 3.26059 11.8248 3.23652 11.8805C3.21246 11.9363 3.20004 11.9963 3.20004 12.057C3.20004 12.1177 3.21246 12.1777 3.23652 12.2335C3.26059 12.2892 3.29581 12.3394 3.34 12.381L6.749 15.762C6.835 15.8371 6.94531 15.8785 7.0595 15.8785C7.17369 15.8785 7.284 15.8371 7.37 15.762ZM10.97 16.688L14.67 8.01C14.6945 7.95408 14.7077 7.89388 14.7088 7.83284C14.7099 7.77181 14.699 7.71115 14.6766 7.65437C14.6542 7.59758 14.6208 7.54579 14.5783 7.50196C14.5358 7.45813 14.4851 7.42314 14.429 7.399L13.577 7.038C13.5211 7.01351 13.4609 7.00032 13.3998 6.99919C13.3388 6.99805 13.2782 7.009 13.2214 7.0314C13.1646 7.0538 13.1128 7.08721 13.069 7.1297C13.0251 7.17219 12.9901 7.22293 12.966 7.279L9.268 15.962C9.24351 16.0179 9.23032 16.0781 9.22919 16.1392C9.22805 16.2002 9.239 16.2608 9.2614 16.3176C9.2838 16.3744 9.31721 16.4262 9.3597 16.47C9.40219 16.5139 9.45293 16.5489 9.509 16.573L10.361 16.934C10.4141 16.967 10.4734 16.9888 10.5352 16.9983C10.597 17.0077 10.6601 17.0045 10.7207 16.9889C10.7812 16.9733 10.838 16.9456 10.8876 16.9075C10.9371 16.8693 10.9784 16.8215 11.009 16.767L10.97 16.688Z" fill="black"/>
</svg>

<svg xmlns="http://www.w3.org/2000/svg" viewBox="0 0 24 24">
  <path d="M16.631 15.762l-.658-.658a.472.472 0 010-.658l2.4-2.389-2.437-2.425a.472.472 0 010-.658l.695-.621a.472.472 0 01.658 0l3.408 3.417a.445.445 0 010 .648l-3.445 3.344a.472.472 0 01-.621 0zm-9.261 0l.658-.658a.472.472 0 000-.658l-2.4-2.384 2.436-2.43a.472.472 0 000-.658l-.695-.621a.472.472 0 00-.658 0l-3.371 3.38a.445.445 0 000 .648l3.409 3.381a.472.472 0 00.621 0zm3.6.926l3.7-8.678a.462.462 0 00-.241-.611l-.852-.361a.463.463 0 00-.611.241l-3.698 8.683a.463.463 0 00.241.611l.852.361a.463.463 0 00.648-.167l-.039-.079z"/>
</svg>
